icons/midna/actions/24/edit-select-all-layers.svg

<svg xmlns="http://www.w3.org/2000/svg" viewBox="0 0 22 22"><defs><clipPath><path fill="#f2f2f2" d="m7 1023.36h1v1h-1z"/></clipPath></defs><g transform="translate(-421.71-525.79)" fill="#566060"><path transform="matrix(1.33333 0 0 1.33333 422.05 526.12)" d="m2 2v3h1v-2h2v-1h-2-1m9 0v1h2v1 1h1v-2-1h-3zm-9 9v1 1 1h3v-1h-2v-1-1h-1m11 0v1 1h-1-1v1h1 1 1v-2-1h-1" color="#000"/><g transform="matrix(.75 0 0 .75 108.18 134.2)"><g transform="translate(3-2.565)"><path d="m447.71 528.79l8.434 4.217-8.434 4.217-8.435-4.217z" transform="translate(-18 2.565)"/><path d="m429.71 545l-6.083-3.042-2.351 1.176 8.435 4.217 8.434-4.217-2.351-1.176z"/></g><path d="m467.51 538.76l-6.083-3.042-2.351 1.176 8.435 4.217 8.434-4.217-2.351-1.176z" transform="translate(-34.8-.124)"/></g></g></svg>

<svg xmlns="http://www.w3.org/2000/svg" viewBox="0 0 16 16">
  <defs id="defs3051">
    <style type="text/css" id="current-color-scheme">
      .ColorScheme-Text {
        color:#4d4d4d;
      }
      </style>
  </defs>
 <path style="fill:currentColor;fill-opacity:1;stroke:none" 
     d="M 2 2 L 2 5 L 3 5 L 3 3 L 5 3 L 5 2 L 3 2 L 2 2 z M 11 2 L 11 3 L 13 3 L 13 4 L 13 5 L 14 5 L 14 3 L 14 2 L 11 2 z M 7 5 L 4 8 L 9 8 L 12 5 L 7 5 z M 7 9 L 4 12 L 9 12 L 12 9 L 7 9 z M 2 11 L 2 12 L 2 13 L 2 14 L 5 14 L 5 13 L 3 13 L 3 12 L 3 11 L 2 11 z M 13 11 L 13 12 L 13 13 L 12 13 L 11 13 L 11 14 L 12 14 L 13 14 L 14 14 L 14 12 L 14 11 L 13 11 z "
     class="ColorScheme-Text"
     />
</svg>
